X: 3897
T: Blackbanks, The
R: waltz
M: 3/4
K: Dmajor
|:F FE|D4 B,A,|B,D- D2 DE|F2 d2 cd|
B3d dB|A4 B2|D4 EF|G4 AB|A3G FE|
D4 B,A,|B,D- D2 DE|F2 d2 cd|B3d dB|
A4 A/B/c|d3B AF|E3D FE|D3:|
|:E FA|B3A Bc|d3c de|fd ab af|e3g ge|
f3e ed|B4 A/B/c|d2 A2 F2|E3A AE|
F3E ED|B,3B, A,B,|D3E F/E/D|E3E DE|
FD dD cd|B3A AF|E3D FE|D3:|

